icons/notification-minimal-alert-a.svg

<svg width="24" height="24" viewBox="0 0 24 24" fill="none" xmlns="http://www.w3.org/2000/svg">
<path fill-rule="evenodd" clip-rule="evenodd" d="M3.20001 10.65C3.20001 5.83581 7.1358 1.90002 11.95 1.90002C13.1602 1.90002 14.3663 2.17634 15.4076 2.64704C15.8665 2.30372 16.4353 2.10002 17.0501 2.10002C18.5643 2.10002 19.8001 3.33581 19.8001 4.85002C19.8001 5.2858 19.6978 5.69852 19.5159 6.06536C20.2957 7.37058 20.8 8.92397 20.8 10.65V14.65C20.8 17.2642 18.6642 19.4 16.05 19.4H15.155C14.8987 20.9461 13.5765 22.1 11.95 22.1C10.3236 22.1 9.00128 20.9461 8.74498 19.4H7.95001C5.3358 19.4 3.20001 17.2642 3.20001 14.65V10.65ZM18.4437 7.21903C18.0346 7.46098 17.558 7.60002 17.0501 7.60002C15.4113 7.60002 14.3001 6.33921 14.3001 4.85002C14.3001 4.50963 14.3626 4.18331 14.4766 3.88193C13.6986 3.57714 12.8227 3.40002 11.95 3.40002C7.96423 3.40002 4.70001 6.66424 4.70001 10.65V14.65C4.70001 16.4358 6.16423 17.9 7.95001 17.9H16.05C17.8358 17.9 19.3 16.4358 19.3 14.65V10.65C19.3 9.38781 18.9744 8.23057 18.4437 7.21903ZM11.95 20.6C11.1574 20.6 10.5081 20.106 10.284 19.4H13.616C13.3919 20.106 12.7426 20.6 11.95 20.6ZM15.8001 4.85002C15.8001 4.16423 16.3643 3.60002 17.0501 3.60002C17.7359 3.60002 18.3001 4.16423 18.3001 4.85002C18.3001 5.53581 17.7359 6.10002 17.0501 6.10002C16.2889 6.10002 15.8001 5.56083 15.8001 4.85002Z" fill="black"/>
</svg>

<svg xmlns="http://www.w3.org/2000/svg" fill="none" viewBox="0 0 24 24">
  <path fill="#000" fill-rule="evenodd" d="M3.2 10.65c0-4.814 3.936-8.75 8.75-8.75 1.21 0 2.416.276 3.458.747A2.734 2.734 0 0 1 17.05 2.1a2.756 2.756 0 0 1 2.75 2.75c0 .436-.102.849-.284 1.215A8.895 8.895 0 0 1 20.8 10.65v4a4.762 4.762 0 0 1-4.75 4.75h-.895a3.222 3.222 0 0 1-3.205 2.7 3.222 3.222 0 0 1-3.205-2.7H7.95a4.762 4.762 0 0 1-4.75-4.75v-4Zm15.244-3.431a2.73 2.73 0 0 1-1.394.381c-1.639 0-2.75-1.26-2.75-2.75 0-.34.063-.667.177-.968A7.013 7.013 0 0 0 11.95 3.4c-3.986 0-7.25 3.264-7.25 7.25v4a3.262 3.262 0 0 0 3.25 3.25h8.1a3.262 3.262 0 0 0 3.25-3.25v-4c0-1.262-.326-2.42-.856-3.431ZM11.95 20.6a1.722 1.722 0 0 1-1.666-1.2h3.332a1.722 1.722 0 0 1-1.666 1.2ZM15.8 4.85c0-.686.564-1.25 1.25-1.25s1.25.564 1.25 1.25-.564 1.25-1.25 1.25c-.761 0-1.25-.54-1.25-1.25Z" clip-rule="evenodd"/>
</svg>
